X:135
U: ~ = !turn!
%%topmargin 3cm
T:Mug of Brown Ale
B:Traditional Irish Fiddle Tunes. Randy Miller and Jack Perron.
Z:Transcribed by Ralph Palmer
R:Jig
L:1/8
M:6/8
K:ADor
eAA fAA | Pgfg age | dBA G2 A | ~B3 dBd |
eAA fAA | Pgfg age | dBB gBB | [1 {/c}BAG Agf :| [2 {/c}BAG A2 ||
|: d | efg ~a3 | aba {/b}age | dBd ~g3 | gag {/a}ged |
efg ~a3 | aba {/b}age | dBB gBB | [1 {/c}BAG A2 :| [2 {/c}BAG Agf |]
